data/yantramanav.svg

<svg width="75.742" height="18.156" viewBox="0 0 75.742 18.156" xmlns="http://www.w3.org/2000/svg"><path transform="translate(0 13.146) scale(.0068359 -.0068359)" d="M647 0H471V473L18 1310H221L563 644L905 1310H1107L647 461Z"/><path transform="translate(7.6904 13.146) scale(.0068359 -.0068359)" d="m406-21q-152 0-232 77t-80 216 112 218 308 79h192v96q0 86-52.5 135.5t-142 49.5-143.5-42.5-54-105.5h-169l-2 5q-5 110 102.5 196.5t274 86.5 265.5-85.5 99-241.5v-469q0-113 25-196h-183q-19 93-20 146-52-74-131.5-119.5t-168.5-45.5zm-133 289h-1q0-66 41-103t127-37 164.5 48.5 102.5 113.5v159h-198q-106 0-171-52.5t-65-128.5z"/><path transform="translate(14.615 13.146) scale(.0068359 -.0068359)" d="m129 974h158l13-145q101 163 289 163 160 0 245-93.5t85-283.5v-615h-177v611q0 127-50 182t-156 55q-76 0-135-36t-95-102v-710h-177z"/><path transform="translate(21.779 13.146) scale(.0068359 -.0068359)" d="m185 1207h179v-235h184v-132h-184v-591q0-124 103-124 32 0 66 12l23-121q-48-37-135-37-112 0-174 67t-62 203v591h-154v132h154z"/><path transform="translate(26.134 13.146) scale(.0068359 -.0068359)" d="m306-1h-177v974h158l17-142q89 161 242 161 36 0 68-10l-24-166-91 6q-137 0-193-127z"/><path transform="translate(30.454 13.146) scale(.0068359 -.0068359)" d="m406-21q-152 0-232 77t-80 216 112 218 308 79h192v96q0 86-52.5 135.5t-142 49.5-143.5-42.5-54-105.5h-169l-2 5q-5 110 102.5 196.5t274 86.5 265.5-85.5 99-241.5v-469q0-113 25-196h-183q-19 93-20 146-52-74-131.5-119.5t-168.5-45.5zm-133 289h-1q0-66 41-103t127-37 164.5 48.5 102.5 113.5v159h-198q-106 0-171-52.5t-65-128.5z"/><path transform="translate(37.379 13.146) scale(.0068359 -.0068359)" d="m306 0h-176v974h158l13-128q100 146 296.5 146t266.5-180q101 180 298 180 153 0 237-103.5t84-306.5v-582h-177v584q0 141-48 202.5t-143.5 61.5-152-61.5-66.5-160.5v-626h-179v584q0 136-49.5 200t-147.5 64q-154 0-214-127z"/><path transform="translate(48.392 13.146) scale(.0068359 -.0068359)" d="m406-21q-152 0-232 77t-80 216 112 218 308 79h192v96q0 86-52.5 135.5t-142 49.5-143.5-42.5-54-105.5h-169l-2 5q-5 110 102.5 196.5t274 86.5 265.5-85.5 99-241.5v-469q0-113 25-196h-183q-19 93-20 146-52-74-131.5-119.5t-168.5-45.5zm-133 289h-1q0-66 41-103t127-37 164.5 48.5 102.5 113.5v159h-198q-106 0-171-52.5t-65-128.5z"/><path transform="translate(55.316 13.146) scale(.0068359 -.0068359)" d="m129 974h158l13-145q101 163 289 163 160 0 245-93.5t85-283.5v-615h-177v611q0 127-50 182t-156 55q-76 0-135-36t-95-102v-710h-177z"/><path transform="translate(62.48 13.146) scale(.0068359 -.0068359)" d="m406-21q-152 0-232 77t-80 216 112 218 308 79h192v96q0 86-52.5 135.5t-142 49.5-143.5-42.5-54-105.5h-169l-2 5q-5 110 102.5 196.5t274 86.5 265.5-85.5 99-241.5v-469q0-113 25-196h-183q-19 93-20 146-52-74-131.5-119.5t-168.5-45.5zm-133 289h-1q0-66 41-103t127-37 164.5 48.5 102.5 113.5v159h-198q-106 0-171-52.5t-65-128.5z"/><path transform="translate(69.405 13.146) scale(.0068359 -.0068359)" d="m223 974 231-687 15-68h5l17 68 225 687h180l-358-974h-134l-363 974z"/></svg>

<?xml version="1.0" encoding="utf-8" ?>
<svg baseProfile="tiny" height="100%" version="1.2" width="100%" xmlns="http://www.w3.org/2000/svg" xmlns:ev="http://www.w3.org/2001/xml-events" xmlns:xlink="http://www.w3.org/1999/xlink"><defs /><g><path d="M647 0H471V473L18 1310H221L563 644L905 1310H1107L647 461Z" transform="translate(0.0, 72) scale(0.03515625, -0.03515625)" /><path d="M406 -21Q254 -21 174.0 56.0Q94 133 94.0 272.0Q94 411 206.0 490.0Q318 569 514 569H706V665Q706 751 653.5 800.5Q601 850 511.5 850.0Q422 850 368.0 807.5Q314 765 314 702H145L143 707Q138 817 245.5 903.5Q353 990 519.5 990.0Q686 990 785.0 904.5Q884 819 884 663V194Q884 81 909 -2H726Q707 91 706 144Q654 70 574.5 24.5Q495 -21 406 -21ZM273 268H272Q272 202 313.0 165.0Q354 128 440.0 128.0Q526 128 604.5 176.5Q683 225 707 290V449H509Q403 449 338.0 396.5Q273 344 273 268Z" transform="translate(39.55078125, 72) scale(0.03515625, -0.03515625)" /><path d="M129 974H287L300 829Q401 992 589 992Q749 992 834.0 898.5Q919 805 919 615V0H742V611Q742 738 692.0 793.0Q642 848 536 848Q460 848 401.0 812.0Q342 776 306 710V0H129Z" transform="translate(75.1640625, 72) scale(0.03515625, -0.03515625)" /><path d="M185 1207H364V972H548V840H364V249Q364 125 467 125Q499 125 533 137L556 16Q508 -21 421 -21Q309 -21 247.0 46.0Q185 113 185 249V840H31V972H185Z" transform="translate(112.0078125, 72) scale(0.03515625, -0.03515625)" /><path d="M306 -1H129V973H287L304 831Q393 992 546 992Q582 992 614 982L590 816L499 822Q362 822 306 695Z" transform="translate(134.40234375, 72) scale(0.03515625, -0.03515625)" /><path d="M406 -21Q254 -21 174.0 56.0Q94 133 94.0 272.0Q94 411 206.0 490.0Q318 569 514 569H706V665Q706 751 653.5 800.5Q601 850 511.5 850.0Q422 850 368.0 807.5Q314 765 314 702H145L143 707Q138 817 245.5 903.5Q353 990 519.5 990.0Q686 990 785.0 904.5Q884 819 884 663V194Q884 81 909 -2H726Q707 91 706 144Q654 70 574.5 24.5Q495 -21 406 -21ZM273 268H272Q272 202 313.0 165.0Q354 128 440.0 128.0Q526 128 604.5 176.5Q683 225 707 290V449H509Q403 449 338.0 396.5Q273 344 273 268Z" transform="translate(156.62109375, 72) scale(0.03515625, -0.03515625)" /><path d="M306 0H130V974H288L301 846Q401 992 597.5 992.0Q794 992 864 812Q965 992 1162 992Q1315 992 1399.0 888.5Q1483 785 1483 582V0H1306V584Q1306 725 1258.0 786.5Q1210 848 1114.5 848.0Q1019 848 962.5 786.5Q906 725 896 626V0H717V584Q717 720 667.5 784.0Q618 848 520 848Q366 848 306 721Z" transform="translate(192.234375, 72) scale(0.03515625, -0.03515625)" /><path d="M406 -21Q254 -21 174.0 56.0Q94 133 94.0 272.0Q94 411 206.0 490.0Q318 569 514 569H706V665Q706 751 653.5 800.5Q601 850 511.5 850.0Q422 850 368.0 807.5Q314 765 314 702H145L143 707Q138 817 245.5 903.5Q353 990 519.5 990.0Q686 990 785.0 904.5Q884 819 884 663V194Q884 81 909 -2H726Q707 91 706 144Q654 70 574.5 24.5Q495 -21 406 -21ZM273 268H272Q272 202 313.0 165.0Q354 128 440.0 128.0Q526 128 604.5 176.5Q683 225 707 290V449H509Q403 449 338.0 396.5Q273 344 273 268Z" transform="translate(248.87109375, 72) scale(0.03515625, -0.03515625)" /><path d="M129 974H287L300 829Q401 992 589 992Q749 992 834.0 898.5Q919 805 919 615V0H742V611Q742 738 692.0 793.0Q642 848 536 848Q460 848 401.0 812.0Q342 776 306 710V0H129Z" transform="translate(284.484375, 72) scale(0.03515625, -0.03515625)" /><path d="M406 -21Q254 -21 174.0 56.0Q94 133 94.0 272.0Q94 411 206.0 490.0Q318 569 514 569H706V665Q706 751 653.5 800.5Q601 850 511.5 850.0Q422 850 368.0 807.5Q314 765 314 702H145L143 707Q138 817 245.5 903.5Q353 990 519.5 990.0Q686 990 785.0 904.5Q884 819 884 663V194Q884 81 909 -2H726Q707 91 706 144Q654 70 574.5 24.5Q495 -21 406 -21ZM273 268H272Q272 202 313.0 165.0Q354 128 440.0 128.0Q526 128 604.5 176.5Q683 225 707 290V449H509Q403 449 338.0 396.5Q273 344 273 268Z" transform="translate(321.328125, 72) scale(0.03515625, -0.03515625)" /><path d="M223 974 454 287 469 219H474L491 287L716 974H896L538 0H404L41 974Z" transform="translate(356.94140625, 72) scale(0.03515625, -0.03515625)" /></g></svg>
